X:1
T:The Road To Ballymac x2
L:1/8
Q:1/4=180
M:4/4
K:Gmaj
|:"G"!mf! z2 .G2 z2 .B2 | .d3 (d"C" ed) e z |"G" g2 z2"C" z4 |"G" z8"D7" |
"G"!mf! z2 .G2 z2 .B2 |"G" .d3 (d"C" ed) e z |"C/D"dd z2 z2 dd |1"D" z4 d4 :|
|2 "D"z4"G" d4 
|:"G"G2 .G2"Em" z G3 |"C" .G2 z A-"D7" A4 |"G" G2 .G2"Am" z A3 |"C" .c2 z d-"D7" d4 |
"G"G2 .G2"Em" z G3 |"C" .G2 z A-"D7" A4 |"G" .B2 z c-"C" c2 B2 |1"D7" .A2 z2"G" G4 :|
|2 "D7".A2 z2"G" G4 
